src/images/services/excavator-transportation.svg

<svg width="96" height="96" viewBox="0 0 96 96" fill="none" xmlns="http://www.w3.org/2000/svg">
<g clip-path="url(#clip0_590_2545)">
<path fill-rule="evenodd" clip-rule="evenodd" d="M57.5 23.25C57.5 19.7982 60.2982 17 63.75 17C65.8628 17 67.7307 18.0484 68.862 19.6533C68.9299 19.6699 68.9971 19.6939 69.0625 19.7258L82.6959 26.3582C83.7049 25.6594 84.9297 25.25 86.25 25.25C89.7018 25.25 92.5 28.0482 92.5 31.5C92.5 32.5657 92.2333 33.569 91.763 34.447L94.2389 36.7166C95.5671 37.9342 95.9174 39.8895 95.0943 41.4924L89.8514 51.7022C89.1664 53.0362 87.7927 53.875 86.2931 53.875H76.8948C75.0521 53.875 74.1898 51.5945 75.5715 50.3753L77.9734 48.2561C79.1624 47.2069 80.0849 45.8901 80.6647 44.4142L83.5273 37.1274C81.9299 36.3531 80.712 34.9186 80.228 33.1786C77.9139 32.5526 74.4999 31.616 71.6048 30.7932C70.1294 30.3739 68.7833 29.9826 67.7846 29.6764C67.2867 29.5237 66.866 29.3894 66.556 29.2819C66.4025 29.2286 66.2632 29.1775 66.1504 29.1307C66.1264 29.1207 66.1009 29.1099 66.0748 29.0982L56.617 49.4689C58.3915 51.1336 59.5 53.4999 59.5 56.125C59.5 57.5747 58.3247 58.75 56.875 58.75H55V61.25H58.5C64.8513 61.25 70 66.3987 70 72.75C70 79.1013 64.8513 84.25 58.5 84.25H11.25C4.89873 84.25 -0.25 79.1013 -0.25 72.75C-0.25 66.9937 3.97927 62.2252 9.5 61.3823V58.75H8.75C7.09315 58.75 5.75 57.4069 5.75 55.75V54C5.75 50.9848 7.65642 48.4148 10.3296 47.4297L13.1194 30.2863C13.5918 27.3828 16.0997 25.25 19.0415 25.25H32.6337C35.2978 25.25 37.6429 27.0067 38.3918 29.5634L43.4991 47H46.2985L58.2881 26.2905C57.7861 25.3906 57.5 24.3537 57.5 23.25ZM85.4514 37.6995L82.5262 45.1455C81.8304 46.9166 80.7234 48.4968 79.2966 49.7557L76.8948 51.875H86.2931C87.0429 51.875 87.7297 51.4556 88.0723 50.7886L93.3151 40.5788C93.7267 39.7774 93.5516 38.7997 92.8874 38.1909L90.5433 36.0421C89.4236 37.1008 87.9126 37.75 86.25 37.75C85.9794 37.75 85.7129 37.7328 85.4514 37.6995ZM70 23.25C70 22.9536 69.9794 22.662 69.9394 22.3765L81.1797 27.8448C80.5199 28.7584 80.101 29.8575 80.016 31.0489C77.7561 30.4351 74.7434 29.606 72.1515 28.8693C70.6799 28.4511 69.3495 28.0643 68.3709 27.7642C68.3271 27.7508 68.2841 27.7376 68.2419 27.7246C68.2089 27.7144 68.1763 27.7043 68.1443 27.6944C69.2901 26.5614 70 24.9886 70 23.25ZM59.6356 27.9548L48.6094 47H50.375C52.0546 47 53.6282 47.4538 54.9799 48.2455L63.6833 29.4997C62.1338 29.4835 60.7194 28.9034 59.6356 27.9548ZM46.8558 49C46.868 49.0002 46.8802 49.0002 46.8923 49H50.375C54.31 49 57.5 52.19 57.5 56.125C57.5 56.4702 57.2202 56.75 56.875 56.75H55H54H10.5H9.5H8.75C8.19772 56.75 7.75 56.3023 7.75 55.75V54C7.75 51.2386 9.98858 49 12.75 49H19.5H42.75H44.0849H46.8558ZM63.75 19C61.4028 19 59.5 20.9028 59.5 23.25C59.5 25.5972 61.4028 27.5 63.75 27.5C66.0972 27.5 68 25.5972 68 23.25C68 20.9028 66.0972 19 63.75 19ZM18.5 27.2865C16.7796 27.5203 15.3789 28.8528 15.0934 30.6075L12.4259 47H12.75H18.5L18.5 27.2865ZM20.5 27.25L20.5 47H32.1664L34.3137 41.2739C34.5076 40.7568 35.084 40.4948 35.6011 40.6887C36.1182 40.8826 36.3802 41.459 36.1863 41.9761L34.3024 47H41.4151L36.4724 30.1256C35.9731 28.4211 34.4098 27.25 32.6337 27.25H20.5ZM53 58.75H11.5V61.25H53V58.75ZM1.75 72.75C1.75 67.5033 6.0033 63.25 11.25 63.25H54H55H58.5C63.7467 63.25 68 67.5033 68 72.75C68 77.9967 63.7467 82.25 58.5 82.25H11.25C6.00329 82.25 1.75 77.9967 1.75 72.75ZM8.625 72.125C8.07271 72.125 7.625 72.5727 7.625 73.125C7.625 73.6773 8.07271 74.125 8.625 74.125H58.875C59.4273 74.125 59.875 73.6773 59.875 73.125C59.875 72.5727 59.4273 72.125 58.875 72.125H8.625ZM82 31.5C82 29.1528 83.9028 27.25 86.25 27.25C88.5972 27.25 90.5 29.1528 90.5 31.5C90.5 33.8472 88.5972 35.75 86.25 35.75C83.9028 35.75 82 33.8472 82 31.5Z" fill="#00CC66"/>
</g>
<defs>
<clipPath id="clip0_590_2545">
<rect width="96" height="96" fill="white"/>
</clipPath>
</defs>
</svg>

<svg xmlns="http://www.w3.org/2000/svg" width="96" height="96" fill="none"><g clip-path="url(#a)"><path fill="#0C6" fill-rule="evenodd" d="M57.5 23.25a6.25 6.25 0 0 1 11.362-3.597c.068.017.135.04.2.073l13.634 6.632a6.25 6.25 0 0 1 9.067 8.089l2.476 2.27a4 4 0 0 1 .855 4.775l-5.243 10.21a4 4 0 0 1-3.558 2.173h-9.398c-1.843 0-2.705-2.28-1.323-3.5l2.401-2.119a10 10 0 0 0 2.692-3.842l2.862-7.287a6.266 6.266 0 0 1-3.299-3.948 765.308 765.308 0 0 1-8.623-2.386 207.73 207.73 0 0 1-3.82-1.117 38.038 38.038 0 0 1-1.229-.394 7.65 7.65 0 0 1-.481-.184l-9.458 20.37a9.1 9.1 0 0 1 2.883 6.657 2.625 2.625 0 0 1-2.625 2.625H55v2.5h3.5c6.351 0 11.5 5.149 11.5 11.5s-5.149 11.5-11.5 11.5H11.25c-6.351 0-11.5-5.149-11.5-11.5 0-5.756 4.23-10.525 9.75-11.368V58.75h-.75a3 3 0 0 1-3-3V54a7.003 7.003 0 0 1 4.58-6.57l2.79-17.144a6 6 0 0 1 5.921-5.036h13.593a6 6 0 0 1 5.758 4.313L43.499 47h2.8l11.99-20.71a6.222 6.222 0 0 1-.789-3.04ZM85.451 37.7l-2.925 7.445a12 12 0 0 1-3.23 4.61l-2.401 2.12h9.398a2 2 0 0 0 1.78-1.086l5.242-10.21a2 2 0 0 0-.428-2.388l-2.344-2.149a6.229 6.229 0 0 1-5.092 1.657ZM70 23.25c0-.296-.02-.588-.06-.873l11.24 5.468a6.217 6.217 0 0 0-1.164 3.204 745.047 745.047 0 0 1-7.865-2.18 205.24 205.24 0 0 1-3.91-1.144l-.097-.03A6.23 6.23 0 0 0 70 23.25Zm-10.364 4.705L48.609 47h1.766c1.68 0 3.253.454 4.605 1.245L63.683 29.5a6.225 6.225 0 0 1-4.047-1.545ZM46.856 49h3.519a7.125 7.125 0 0 1 7.125 7.125c0 .345-.28.625-.625.625H8.75a1 1 0 0 1-1-1V54a5 5 0 0 1 5-5H46.855ZM63.75 19a4.25 4.25 0 1 0 0 8.5 4.25 4.25 0 0 0 0-8.5ZM18.5 27.287a4 4 0 0 0-3.407 3.32L12.426 47H18.5V27.287Zm2-.037V47h11.666l2.148-5.726a1 1 0 0 1 1.872.702L34.302 47h7.113l-4.943-16.874a4 4 0 0 0-3.838-2.876H20.5ZM53 58.75H11.5v2.5H53v-2.5Zm-51.25 14a9.5 9.5 0 0 1 9.5-9.5H58.5a9.5 9.5 0 0 1 0 19H11.25a9.5 9.5 0 0 1-9.5-9.5Zm6.875-.625a1 1 0 1 0 0 2h50.25a1 1 0 1 0 0-2H8.625ZM82 31.5a4.25 4.25 0 1 1 8.5 0 4.25 4.25 0 0 1-8.5 0Z" clip-rule="evenodd"/></g><defs><clipPath id="a"><path fill="#fff" d="M0 0h96v96H0z"/></clipPath></defs></svg>
